!!!OTL: Tanz- und Scherzliedchen
!!!ARE: Europa, Mitteleuropa, Deutschland
!!!SCT: A0304A
!!!YEM: Copyright 1995, estate of Helmut Schaffrath.
**kern
*ICvox
*Ivox
*M3/2
*k[b-]
*F:
{1f
2f
=1
1g
2a
=2
1b-
2b-
=3
1a
2a
=4
1g
2g
=5
1.f}
=6
{1f
2f
=7
1g
2a
=8
1b-
2b-
=9
1a
2a
=10
1g
2g
=11
1f}
{2a
=12
1a
2b-
=13
1cc
2cc
=14
2g
2g
2b-
=15
1a
2g
=16
1a
2a
=17
2g
2g}
{2f
=18
1g
2a
=19
1b-
2a
=20
1.g
=21
1.f}
==
!!!AGN: Romanze, Ballade, Lied
!! Werlins Hs. 1646. S. 1765
!!!ONB: ESAC (Essen Associative Code) Database: ALTDEU
!!!AMT: simple triple
!!!AIN: vox
!!!EED: Helmut Schaffrath
!!!EEV: 1.0
*-
